X:167
T: Ansingelied zum Neujahre
N: A0530B
O: Europa, Mitteleuropa, Deutschland
N: Leisentrits Gsgb. 1584.
R: Romanze, Ballade, Lied, religioeses Lied
M: 3/1
L: 1/2
K: C
C2 | G,A,C2D2 | CDC2
E2 | FED2G,2 | A,B,C2z
D | DDE2D2 | CA,G,2
G2 | FED2C2 | CB,C2

@@@ Tune index: 480
